<?xml version="1.0" encoding="UTF-8"?>
<map version="1.10" tiledversion="1.11.2" orientation="orthogonal" renderorder="right-down" width="32" height="18" tilewidth="300" tileheight="300" infinite="0" nextlayerid="5" nextobjectid="11">
 <editorsettings>
  <export target="example_level2.tmj" format="json"/>
 </editorsettings>
 <tileset firstgid="1" source="PlatformTiles.tsx"/>
 <tileset firstgid="25" source="PlayerTorchTiles.tsx"/>
 <tileset firstgid="29" source="EnemyTiles.tsx"/>
 <tileset firstgid="33" source="GameObjectTiles.tsx"/>
 <layer id="1" name="Tile Layer 1" width="32" height="18">
  <data encoding="csv">
15,21,21,21,21,21,21,21,21,21,21,21,21,21,21,21,21,21,21,21,21,21,21,21,21,21,21,21,21,21,21,15,
16,0,0,0,0,0,0,0,0,0,0,0,0,0,0,0,0,0,0,0,0,0,0,0,0,0,0,0,0,0,0,14,
16,0,0,0,0,0,0,0,0,0,0,0,0,0,0,0,0,0,0,0,0,0,0,0,0,0,0,0,0,0,0,14,
16,0,0,0,0,0,0,0,0,0,0,0,0,0,0,0,0,0,0,0,0,0,0,0,0,0,0,0,0,0,0,14,
16,0,0,0,0,0,0,0,0,0,0,0,0,0,0,0,0,0,0,0,0,0,0,0,0,0,0,0,0,0,0,14,
16,0,0,0,0,0,0,0,0,0,0,0,0,0,0,0,0,0,0,0,0,0,0,0,0,0,0,0,0,0,0,14,
16,0,0,0,0,0,0,0,0,0,0,0,0,0,0,0,0,0,0,0,0,0,0,0,0,0,0,0,0,0,0,14,
15,3,3,3,3,4,0,0,0,0,0,0,0,0,0,0,0,0,0,0,0,0,0,0,0,0,0,0,0,0,0,14,
16,0,0,0,0,0,0,0,0,0,0,0,0,0,0,0,0,0,0,0,0,0,0,0,0,0,0,0,0,0,0,14,
16,0,0,0,0,0,0,0,0,0,0,0,0,0,0,0,0,0,0,0,0,0,0,0,0,0,0,0,0,0,0,14,
16,0,0,0,0,2,3,3,3,3,4,0,0,0,0,0,0,0,0,0,0,0,0,0,0,0,0,0,0,0,0,14,
16,0,0,0,0,0,0,0,0,0,0,0,0,0,0,0,0,0,0,0,0,0,0,0,0,0,0,0,0,0,0,14,
16,0,0,0,0,0,0,0,0,0,0,0,0,2,3,3,3,3,3,3,3,4,0,0,0,0,0,0,0,0,0,14,
16,0,0,0,0,0,0,0,0,0,0,0,0,0,0,0,0,0,0,0,0,0,0,0,0,0,0,0,0,0,0,14,
16,0,0,0,0,0,0,0,0,0,0,0,0,0,0,0,0,0,0,0,0,0,0,0,0,0,0,0,0,0,0,14,
16,0,0,0,0,0,0,0,0,0,0,0,0,0,0,0,0,0,0,0,0,0,0,0,8,9,9,9,9,9,9,15,
16,0,0,0,0,0,0,0,0,0,0,0,0,0,0,0,0,0,0,0,0,0,0,0,14,15,15,15,15,15,15,15,
15,9,9,9,9,9,9,9,9,9,9,9,9,9,9,9,9,9,9,9,9,9,9,9,15,15,15,15,15,15,15,15
</data>
 </layer>
 <objectgroup id="4" name="GameObject">
  <object id="8" name="goaldoor" gid="37" x="534" y="2090" width="500" height="500"/>
  <object id="9" name="1" gid="35" x="1538" y="2326" width="150" height="150"/>
  <object id="10" name="2" gid="35" x="1618" y="3222" width="150" height="150">
   <properties>
    <property name="depth" value="2"/>
    <property name="piecelen" value="14"/>
    <property name="thickness" value="10"/>
   </properties>
  </object>
 </objectgroup>
 <objectgroup id="2" name="PlayerTorch">
  <object id="1" name="player" gid="28" x="714" y="5052" width="300" height="600"/>
  <object id="2" name="torch" gid="27" x="2125" y="5062" width="150" height="300"/>
 </objectgroup>
 <objectgroup id="3" name="Enemy">
  <object id="3" name="totem" gid="31" x="2930" y="5078" width="300" height="300"/>
  <object id="4" name="totem" gid="31" x="2938" y="4798" width="300" height="300"/>
  <object id="5" name="totem" gid="31" x="2930" y="4534" width="300" height="300"/>
  <object id="6" name="totem" gid="31" x="5602" y="5086" width="300" height="300"/>
  <object id="7" name="totem" gid="31" x="4626" y="3590" width="300" height="300"/>
 </objectgroup>
</map>
