{ "compressionlevel":-1,
 "height":10,
 "infinite":false,
 "layers":[
        {
         "data":[0, 0, 0, 0, 0, 0, 0, 0, 0, 0,
            0, 0, 0, 0, 0, 0, 0, 0, 0, 0,
            0, 0, 0, 0, 0, 0, 0, 0, 0, 0,
            0, 0, 0, 0, 0, 0, 0, 0, 0, 0,
            0, 0, 0, 0, 0, 0, 0, 0, 0, 0,
            0, 0, 0, 0, 0, 0, 0, 0, 0, 0,
            0, 0, 0, 0, 0, 0, 0, 0, 0, 0,
            0, 0, 0, 0, 0, 0, 0, 0, 0, 0,
            0, 0, 0, 0, 0, 0, 0, 0, 0, 0,
            3, 3, 3, 3, 3, 3, 3, 3, 3, 3],
         "height":10,
         "id":1,
         "name":"Tile Layer 1",
         "opacity":1,
         "type":"tilelayer",
         "visible":true,
         "width":10,
         "x":0,
         "y":0
        }, 
        {
         "draworder":"topdown",
         "id":3,
         "name":"Object Layer 1",
         "objects":[
                {
                 "gid":52,
                 "height":600,
                 "id":1,
                 "name":"player",
                 "rotation":0,
                 "type":"",
                 "visible":true,
                 "width":300,
                 "x":138,
                 "y":2608
                }, 
                {
                 "gid":51,
                 "height":437,
                 "id":2,
                 "name":"torch",
                 "rotation":0,
                 "type":"",
                 "visible":true,
                 "width":216,
                 "x":1596,
                 "y":2491
                }, 
                {
                 "gid":57,
                 "height":235,
                 "id":3,
                 "name":"goaldoor",
                 "rotation":0,
                 "type":"",
                 "visible":true,
                 "width":346,
                 "x":1463,
                 "y":466
                }],
         "opacity":1,
         "type":"objectgroup",
         "visible":true,
         "x":0,
         "y":0
        }],
 "nextlayerid":4,
 "nextobjectid":4,
 "orientation":"orthogonal",
 "renderorder":"right-down",
 "tiledversion":"1.10.2",
 "tileheight":300,
 "tilesets":[
        {
         "firstgid":1,
         "source":"PlatformTiles.tsx"
        }, 
        {
         "firstgid":49,
         "source":"PlayerTorchTiles.tsx"
        }, 
        {
         "firstgid":53,
         "source":"GameObjectTiles.tsx"
        }],
 "tilewidth":300,
 "type":"map",
 "version":"1.10",
 "width":10
}