<?xml version="1.0" encoding="UTF-8"?>
<map version="1.10" tiledversion="1.10.2" orientation="orthogonal" renderorder="right-down" width="32" height="18" tilewidth="300" tileheight="300" infinite="0" backgroundcolor="#2b4859" nextlayerid="8" nextobjectid="241">
 <tileset firstgid="1" source="PlatformTiles.tsx"/>
 <tileset firstgid="49" source="PlayerTorchTiles.tsx"/>
 <tileset firstgid="53" source="EnemyTiles.tsx"/>
 <tileset firstgid="57" source="GameObjectTiles.tsx"/>
 <tileset firstgid="72" source="BackgroundAssets.tsx"/>
 <objectgroup id="7" name="BackgroundTiles" visible="0">
  <object id="115" name="brickBackground" gid="72" x="600" y="3300" width="600" height="600"/>
  <object id="116" name="brickBackground" gid="72" x="1200" y="3300" width="600" height="600"/>
  <object id="117" name="brickBackground" gid="72" x="600" y="3900" width="600" height="600"/>
  <object id="118" name="brickBackground" gid="72" x="1200" y="3900" width="600" height="600"/>
  <object id="119" name="brickBackground" gid="72" x="1200" y="4500" width="600" height="600"/>
  <object id="120" name="brickBackground" gid="72" x="600" y="4500" width="600" height="600"/>
  <object id="121" name="brickBackground" gid="72" x="600" y="5100" width="600" height="600"/>
  <object id="122" name="brickBackground" gid="72" x="1200" y="5100" width="600" height="600"/>
  <object id="123" name="brickBackground" gid="72" x="1200" y="5700" width="600" height="600"/>
  <object id="124" name="brickBackground" gid="72" x="600" y="5700" width="600" height="600"/>
  <object id="125" name="brickBackground" gid="72" x="1800" y="3300" width="600" height="600"/>
  <object id="126" name="brickBackground" gid="72" x="2400" y="3300" width="600" height="600"/>
  <object id="127" name="brickBackground" gid="72" x="1800" y="3900" width="600" height="600"/>
  <object id="128" name="brickBackground" gid="72" x="2400" y="3900" width="600" height="600"/>
  <object id="129" name="brickBackground" gid="72" x="2400" y="4500" width="600" height="600"/>
  <object id="130" name="brickBackground" gid="72" x="1800" y="4500" width="600" height="600"/>
  <object id="131" name="brickBackground" gid="72" x="1800" y="5100" width="600" height="600"/>
  <object id="132" name="brickBackground" gid="72" x="2400" y="5100" width="600" height="600"/>
  <object id="133" name="brickBackground" gid="72" x="2400" y="5700" width="600" height="600"/>
  <object id="134" name="brickBackground" gid="72" x="1800" y="5700" width="600" height="600"/>
  <object id="135" name="brickBackground" gid="72" x="3000" y="3300" width="600" height="600"/>
  <object id="136" name="brickBackground" gid="72" x="3600" y="3300" width="600" height="600"/>
  <object id="137" name="brickBackground" gid="72" x="3000" y="3900" width="600" height="600"/>
  <object id="138" name="brickBackground" gid="72" x="3600" y="3900" width="600" height="600"/>
  <object id="139" name="brickBackground" gid="72" x="3600" y="4500" width="600" height="600"/>
  <object id="140" name="brickBackground" gid="72" x="3000" y="4500" width="600" height="600"/>
  <object id="141" name="brickBackground" gid="72" x="3000" y="5100" width="600" height="600"/>
  <object id="142" name="brickBackground" gid="72" x="3600" y="5100" width="600" height="600"/>
  <object id="143" name="brickBackground" gid="72" x="3600" y="5700" width="600" height="600"/>
  <object id="144" name="brickBackground" gid="72" x="3000" y="5700" width="600" height="600"/>
  <object id="145" name="brickBackground" gid="72" x="4200" y="3300" width="600" height="600"/>
  <object id="146" name="brickBackground" gid="72" x="4800" y="3300" width="600" height="600"/>
  <object id="147" name="brickBackground" gid="72" x="4200" y="3900" width="600" height="600"/>
  <object id="148" name="brickBackground" gid="72" x="4800" y="3900" width="600" height="600"/>
  <object id="149" name="brickBackground" gid="72" x="4800" y="4500" width="600" height="600"/>
  <object id="150" name="brickBackground" gid="72" x="4200" y="4500" width="600" height="600"/>
  <object id="151" name="brickBackground" gid="72" x="4200" y="5100" width="600" height="600"/>
  <object id="152" name="brickBackground" gid="72" x="4800" y="5100" width="600" height="600"/>
  <object id="153" name="brickBackground" gid="72" x="4800" y="5700" width="600" height="600"/>
  <object id="154" name="brickBackground" gid="72" x="4200" y="5700" width="600" height="600"/>
  <object id="155" name="brickBackground" gid="72" x="5400" y="3300" width="600" height="600"/>
  <object id="156" name="brickBackground" gid="72" x="6000" y="3300" width="600" height="600"/>
  <object id="157" name="brickBackground" gid="72" x="5400" y="3900" width="600" height="600"/>
  <object id="158" name="brickBackground" gid="72" x="6000" y="3900" width="600" height="600"/>
  <object id="159" name="brickBackground" gid="72" x="6000" y="4500" width="600" height="600"/>
  <object id="160" name="brickBackground" gid="72" x="5400" y="4500" width="600" height="600"/>
  <object id="161" name="brickBackground" gid="72" x="5400" y="5100" width="600" height="600"/>
  <object id="162" name="brickBackground" gid="72" x="6000" y="5100" width="600" height="600"/>
  <object id="163" name="brickBackground" gid="72" x="6000" y="5700" width="600" height="600"/>
  <object id="164" name="brickBackground" gid="72" x="5400" y="5700" width="600" height="600"/>
  <object id="165" name="brickBackground" gid="72" x="6600" y="3300" width="600" height="600"/>
  <object id="166" name="brickBackground" gid="72" x="7200" y="3300" width="600" height="600"/>
  <object id="167" name="brickBackground" gid="72" x="6600" y="3900" width="600" height="600"/>
  <object id="168" name="brickBackground" gid="72" x="7200" y="3900" width="600" height="600"/>
  <object id="169" name="brickBackground" gid="72" x="7200" y="4500" width="600" height="600"/>
  <object id="170" name="brickBackground" gid="72" x="6600" y="4500" width="600" height="600"/>
  <object id="171" name="brickBackground" gid="72" x="6600" y="5100" width="600" height="600"/>
  <object id="172" name="brickBackground" gid="72" x="7200" y="5100" width="600" height="600"/>
  <object id="173" name="brickBackground" gid="72" x="7200" y="5700" width="600" height="600"/>
  <object id="174" name="brickBackground" gid="72" x="6600" y="5700" width="600" height="600"/>
  <object id="175" name="brickBackground" gid="72" x="7800" y="3300" width="600" height="600"/>
  <object id="176" name="brickBackground" gid="72" x="8400" y="3300" width="600" height="600"/>
  <object id="177" name="brickBackground" gid="72" x="7800" y="3900" width="600" height="600"/>
  <object id="178" name="brickBackground" gid="72" x="8400" y="3900" width="600" height="600"/>
  <object id="179" name="brickBackground" gid="72" x="8400" y="4500" width="600" height="600"/>
  <object id="180" name="brickBackground" gid="72" x="7800" y="4500" width="600" height="600"/>
  <object id="181" name="brickBackground" gid="72" x="7800" y="5100" width="600" height="600"/>
  <object id="182" name="brickBackground" gid="72" x="8400" y="5100" width="600" height="600"/>
  <object id="183" name="brickBackground" gid="72" x="8400" y="5700" width="600" height="600"/>
  <object id="184" name="brickBackground" gid="72" x="7800" y="5700" width="600" height="600"/>
  <object id="185" name="brickBackground" gid="72" x="9000" y="3300" width="600" height="600"/>
  <object id="187" name="brickBackground" gid="72" x="9000" y="3900" width="600" height="600"/>
  <object id="190" name="brickBackground" gid="72" x="9000" y="4500" width="600" height="600"/>
  <object id="191" name="brickBackground" gid="72" x="9000" y="5100" width="600" height="600"/>
  <object id="194" name="brickBackground" gid="72" x="9000" y="5700" width="600" height="600"/>
 </objectgroup>
 <objectgroup id="4" name="Background"/>
 <layer id="1" name="Tile Layer 1" width="32" height="18">
  <data encoding="csv">
27,27,27,27,27,27,27,27,27,27,27,27,27,27,27,27,27,27,27,27,27,27,27,27,27,27,27,27,27,27,27,27,
27,27,27,27,27,27,27,27,27,27,27,27,27,27,27,27,27,27,27,27,27,27,27,27,27,27,27,27,27,27,27,27,
27,27,27,27,27,27,27,27,27,27,27,27,27,27,27,27,27,27,27,27,27,27,27,27,27,27,27,27,27,27,27,27,
27,27,27,27,27,27,27,27,27,27,27,27,27,27,27,27,27,27,27,27,27,27,27,27,27,27,27,27,27,27,27,27,
27,27,27,27,27,27,27,27,27,27,27,27,27,27,27,27,27,27,27,27,27,27,27,27,27,27,27,27,27,27,27,27,
27,33,39,39,39,39,39,39,39,39,39,39,39,39,39,39,39,39,39,39,39,39,39,39,39,39,39,39,39,39,39,34,
27,28,0,0,0,0,0,0,0,0,0,0,0,0,0,0,0,0,0,0,0,0,0,0,0,0,0,0,0,0,0,26,
27,28,0,0,0,0,0,0,0,0,0,0,0,0,0,0,0,0,0,0,0,0,0,0,0,0,0,0,0,0,0,26,
27,28,0,0,0,0,0,0,0,0,0,0,0,0,0,0,0,0,0,0,0,0,0,0,0,0,0,0,0,0,0,26,
27,28,0,0,0,0,0,0,0,0,0,0,0,0,0,0,0,0,0,0,0,0,0,0,0,0,0,0,0,0,0,26,
27,28,0,0,0,0,0,0,0,0,0,0,0,0,0,0,0,0,0,0,0,0,0,0,0,0,0,0,0,0,0,26,
27,45,15,15,15,15,15,15,16,0,0,0,0,0,0,0,0,0,0,0,0,14,15,15,15,15,15,15,15,15,15,46,
27,27,27,27,27,27,27,27,28,0,0,0,0,0,0,0,0,0,0,0,0,26,27,27,27,27,27,27,27,27,27,27,
27,27,27,27,27,27,27,27,28,0,0,0,0,0,0,0,0,0,0,0,0,26,27,27,27,27,27,27,27,27,27,27,
27,27,27,27,27,27,27,27,28,0,0,0,0,0,0,0,0,0,0,0,0,26,27,27,27,27,27,27,27,27,27,27,
27,27,27,27,27,27,27,27,28,0,0,0,0,0,0,0,0,0,0,0,0,26,27,27,27,27,27,27,27,27,27,27,
27,27,27,27,27,27,27,27,28,0,0,0,0,0,0,0,0,0,0,0,0,26,27,27,27,27,27,27,27,27,27,27,
27,27,27,27,27,27,27,27,28,0,0,0,0,0,0,0,0,0,0,0,0,26,27,27,27,27,27,27,27,27,27,27
</data>
 </layer>
 <objectgroup id="3" name="Enemies"/>
 <objectgroup id="2" name="Player">
  <object id="1" name="player" gid="52" x="882" y="3268" width="300" height="600"/>
  <object id="2" name="torch" gid="51" x="1147.25" y="3221.66" width="150" height="300"/>
 </objectgroup>
 <objectgroup id="6" name="Action Entities">
  <object id="240" name="rune" gid="70" x="2430.86" y="2961.87" width="73" height="93">
   <properties>
    <property name="endPos" value="10,6"/>
    <property name="moveEvent" type="bool" value="true"/>
    <property name="platformName" value="platforma"/>
    <property name="startPos" value="19,6"/>
    <property name="thresholds" value="0"/>
   </properties>
  </object>
 </objectgroup>
 <objectgroup id="5" name="Entities">
  <object id="114" name="goaldoor" gid="61" x="7471" y="3266" width="346" height="235"/>
  <object id="238" name="platforma" gid="62" x="4800" y="3600" width="900" height="300"/>
 </objectgroup>
</map>
