<?xml version="1.0" encoding="UTF-8"?>
<map version="1.10" tiledversion="1.11.2" orientation="orthogonal" renderorder="right-down" width="32" height="18" tilewidth="300" tileheight="300" infinite="0" nextlayerid="5" nextobjectid="10">
 <tileset firstgid="1" source="PlatformTiles.tsx"/>
 <tileset firstgid="25" source="PlayerTorchTiles.tsx"/>
 <tileset firstgid="29" source="EnemyTiles.tsx"/>
 <tileset firstgid="33" source="GameObjectTiles.tsx"/>
 <layer id="1" name="Tile Layer 1" width="32" height="18">
  <data encoding="csv">
15,21,21,21,21,21,21,21,21,21,21,21,21,21,21,21,21,21,21,21,21,21,21,21,21,21,21,21,21,21,21,15,
16,0,0,0,0,0,0,0,0,0,0,0,0,0,0,0,0,0,0,0,0,0,0,0,0,0,0,0,0,0,0,14,
16,0,0,0,0,0,0,0,0,0,0,0,0,0,0,0,0,0,0,0,0,0,0,0,0,0,0,0,0,0,0,14,
16,0,0,0,0,0,0,0,0,0,0,0,0,0,0,0,0,0,0,0,0,0,0,0,0,0,0,0,0,0,0,14,
16,0,0,0,0,0,0,0,0,0,0,0,0,0,0,0,0,0,0,0,0,0,0,0,0,0,0,0,0,0,0,14,
16,0,0,0,0,0,0,0,0,0,0,0,0,0,0,0,0,0,0,0,0,0,0,0,0,0,0,0,0,0,0,14,
16,0,0,0,0,0,0,0,0,0,0,0,0,0,0,0,0,0,0,0,0,0,0,0,0,0,0,0,0,0,0,14,
16,0,0,0,0,0,0,0,0,0,0,0,0,0,0,0,0,0,0,0,0,0,0,0,0,0,0,0,0,0,0,14,
16,0,0,0,0,0,0,0,0,0,0,0,0,0,0,0,0,0,0,0,0,0,0,0,0,0,0,0,0,0,0,14,
16,0,0,0,0,0,0,0,0,0,0,0,0,0,0,0,0,0,0,0,0,0,0,0,0,0,0,0,0,0,0,14,
16,0,0,0,0,0,0,0,0,0,0,0,0,0,0,0,0,0,0,0,0,0,0,0,0,0,0,0,0,0,0,14,
16,0,0,0,0,0,0,0,0,0,0,0,0,0,0,0,0,0,0,0,0,0,0,0,0,0,0,0,0,0,0,14,
16,0,0,0,0,0,0,0,0,0,0,0,0,0,0,0,0,0,0,0,0,0,0,0,0,0,0,0,0,0,0,14,
16,0,0,0,0,0,0,0,0,0,0,0,0,0,0,0,0,0,0,0,0,0,0,0,0,0,0,0,0,0,0,14,
16,0,0,0,0,0,0,0,0,0,0,0,0,0,0,0,0,0,0,0,0,0,0,0,0,0,0,0,0,0,0,14,
16,0,0,0,0,0,0,0,0,0,0,0,0,0,0,0,0,0,0,0,0,0,0,0,0,0,0,0,0,0,0,14,
16,0,0,0,0,0,0,0,0,0,0,0,0,0,0,0,0,0,0,0,0,0,0,0,0,0,0,0,0,0,0,14,
15,9,9,9,9,9,9,9,9,9,9,9,9,9,9,9,9,9,9,9,9,9,9,9,9,9,9,9,9,9,9,15
</data>
 </layer>
 <objectgroup id="2" name="PlayerTorch">
  <object id="1" name="player" gid="28" x="762" y="5052" width="300" height="600"/>
  <object id="2" name="torch" gid="27" x="1813" y="4982" width="150" height="300"/>
 </objectgroup>
 <objectgroup id="3" name="Enemy">
  <object id="3" name="totem" gid="31" x="3266" y="5090" width="300" height="300"/>
  <object id="4" name="totem" gid="31" x="3274" y="4758" width="300" height="300"/>
  <object id="5" name="totem" gid="31" x="3274" y="4410" width="300" height="300"/>
  <object id="6" name="moth" gid="32" x="4286" y="5090" width="300" height="300"/>
 </objectgroup>
 <objectgroup id="4" name="GameObjects">
  <object id="7" gid="36" x="7309" y="4169" width="600" height="300"/>
  <object id="8" gid="37" x="8582" y="5066" width="500" height="500"/>
  <object id="9" name="totem" gid="31" x="5690" y="5030" width="300" height="300"/>
 </objectgroup>
</map>
